src/basic/800/u27AD-right-3d.svg

<svg width="16" height="16" viewBox="0 0 16 16" fill="none" xmlns="http://www.w3.org/2000/svg">
<path fill-rule="evenodd" clip-rule="evenodd" d="M13.2929,8.00001l-5.14645,-5.14645l0.7071,-0.70711l6.00005,6l0.3535,0.35356l-0.3535,0.35355l-6.00005,6.00004l-0.7071,-0.7071l4.15815,-4.15822h-11.31632l-0.5,-0.5h12.31632l0.4883,-0.48827h-13.2929v-1zM15.9439,9.17598l-6.3826,6.38262l-0.35356,-0.3535l6.38256,-6.38267z" fill="black"/>
</svg>

<svg width="16" height="16" viewBox="0 0 16 16" fill="none" xmlns="http://www.w3.org/2000/svg">
<path fill-rule="evenodd" clip-rule="evenodd" d="M13.2929 8.00001L8.14645 2.85356L8.85355 2.14645L14.8536 8.14645L15.2071 8.50001L14.8536 8.85356L8.85355 14.8536L8.14645 14.1465L12.3046 9.98828H0.988281L0.488281 9.48828H12.8046L13.2929 9.00001H0V8.00001H13.2929ZM15.5903 8.82243L9.20774 15.2051L9.5613 15.5586L15.9439 9.17598L15.5903 8.82243Z" fill="black"/>
</svg>
